packages/vapor/resources/icons/svg/source-mail.svg

<svg viewBox="0 0 64 64" xmlns="http://www.w3.org/2000/svg"><rect fill="#1f263f" height="64" rx="2" width="64"/><path d="m46 19.19h-28a4 4 0 0 0 -4 3.94v17.74a4 4 0 0 0 4 3.94h28a4 4 0 0 0 4-3.94v-17.74a4 4 0 0 0 -4-3.94zm0 1.89a1.64 1.64 0 0 1 .38 0l-13.83 10.4a1 1 0 0 1 -1.07 0l-13.89-10.36a1.64 1.64 0 0 1 .38 0zm2 19.79a2.05 2.05 0 0 1 -2 2.05h-28a2.05 2.05 0 0 1 -2-2.05v-17.74a1.89 1.89 0 0 1 .16-.79l14.23 10.66a2.79 2.79 0 0 0 1.6.49 3 3 0 0 0 1.66-.49l14.27-10.66a1.89 1.89 0 0 1 .16.79z" fill="#fff"/></svg>

<svg xmlns="http://www.w3.org/2000/svg" viewBox="0 0 64 64">
    <g>
        <rect fill="#1f263f" width="64" height="64" rx="2" ry="2"/>
        <path fill="#fff" d="M46,19.19H18A4,4,0,0,0,14,23.13V40.87A4,4,0,0,0,18,44.81H46A4,4,0,0,0,50,40.87V23.13A4,4,0,0,0,46,19.19Zm0,1.89a1.64,1.64,0,0,1,.38,0L32.55,31.48a1,1,0,0,1-1.07,0L17.59,21.12a1.64,1.64,0,0,1,.38,0Zm2,19.79a2.05,2.05,0,0,1-2,2.05H18a2.05,2.05,0,0,1-2-2.05V23.13a1.89,1.89,0,0,1,.16-.79L30.39,33a2.79,2.79,0,0,0,1.6.49A3,3,0,0,0,33.65,33L47.92,22.34a1.89,1.89,0,0,1,.16.79Z"/>
    </g>
</svg>
